app/assets/images/payment_icons/afterpay.svg

<svg xmlns="http://www.w3.org/2000/svg" width="38" height="24" viewBox="0 0 38 24" fill="none" aria-labelledby="pi-afterpay" role="img"><title id="pi-afterpay">Afterpay</title><rect width="38" height="24" fill="#B2FCE4"/><path d="M27.4 6.80001L24.7 5.20001L22 3.60001C20.2 2.60001 17.9 3.90001 17.9 6.00001V6.40001C17.9 6.60001 18 6.80001 18.2 6.90001L19.5 7.60001C19.9 7.80001 20.3 7.50001 20.3 7.10001V6.30001C20.3 5.90001 20.7 5.60001 21.1 5.80001L23.6 7.20001L26 8.70001C26.4 8.90001 26.4 9.40001 26 9.60001L23.5 11L21 12.6C20.6 12.8 20.2 12.5 20.2 12.1V11.7C20.2 9.60001 17.9 8.30001 16.1 9.30001L13.4 10.9L10.7 12.5C8.9 13.5 8.9 16.2 10.7 17.2L13.4 18.8L16.1 20.4C17.9 21.4 20.2 20.1 20.2 18V17.6C20.2 17.4 20.1 17.2 19.9 17.1L18.6 16.4C18.2 16.2 17.8 16.5 17.8 16.9V17.7C17.8 18.1 17.4 18.4 17 18.2L14.5 16.8L12 15.3C11.6 15.1 11.6 14.6 12 14.4L14.5 13L17 11.6C17.4 11.4 17.8 11.7 17.8 12.1V12.5C17.8 14.6 20.1 15.9 21.9 14.9L24.6 13.3L27.3 11.7C29.2 10.5 29.2 7.90001 27.4 6.80001V6.80001Z" fill="black"/></svg>

<svg xmlns="http://www.w3.org/2000/svg" role="img" viewBox="0 0 38 24" width="38" height="24" aria-labelledby="pi-afterpay"><title id="pi-afterpay">Afterpay</title><path fill="#b2fce4" d="M35 0H3C1.3 0 0 1.3 0 3v18c0 1.7 1.4 3 3 3h32c1.7 0 3-1.3 3-3V3c0-1.7-1.4-3-3-3z"/><path d="m27.4 6.8-2.7-1.6-2.7-1.6c-1.8-1-4.1.3-4.1 2.4v.4c0 .2.1.4.3.5l1.3.7c.4.2.8-.1.8-.5v-.8c0-.4.4-.7.8-.5l2.5 1.4 2.4 1.5c.4.2.4.7 0 .9l-2.5 1.4-2.5 1.6c-.4.2-.8-.1-.8-.5v-.4c0-2.1-2.3-3.4-4.1-2.4l-2.7 1.6-2.7 1.6c-1.8 1-1.8 3.7 0 4.7l2.7 1.6 2.7 1.6c1.8 1 4.1-.3 4.1-2.4v-.4c0-.2-.1-.4-.3-.5l-1.3-.7c-.4-.2-.8.1-.8.5v.8c0 .4-.4.7-.8.5l-2.5-1.4-2.5-1.5c-.4-.2-.4-.7 0-.9l2.5-1.4 2.5-1.4c.4-.2.8.1.8.5v.4c0 2.1 2.3 3.4 4.1 2.4l2.7-1.6 2.7-1.6c1.9-1.2 1.9-3.8.1-4.9z"/></svg>
